X: 2659
T: Banjo Breakdown
R: jig
M: 6/8
K: Amixolydian
M:4/4
|:A/A/Ace aece|A/A/Adf afdf|A/A/Ace aece|B/B/ec/c/e B/B/e (3dcB|
A/A/Ace aece|A/A/Adf afdf|eagf edcB|A/A/aec A/A/A a2:|
|:A/A/aca A/A/aca|A/A/ada A/A/ada|A/A/aca A/A/aca|B/B/aca B/B/aca|
A/A/aca A/A/aca|A/A/ada A/A/ada|eagf edcB|A/A/aec A/A/A a2:|

